assets/toggle.svg

<svg width="33" height="22" viewBox="0 0 33 22" fill="none" xmlns="http://www.w3.org/2000/svg">
<path d="M33 20.4364C33 21.3007 32.2641 22 31.3582 22H18.1418C17.7063 22 17.2887 21.8353 16.9809 21.542C16.673 21.2488 16.5 20.8511 16.5 20.4364C16.5 20.0217 16.673 19.624 16.9809 19.3308C17.2887 19.0376 17.7063 18.8729 18.1418 18.8729H31.3582C32.2658 18.8729 33 19.5721 33 20.4364Z" fill="#054BDC"/>
<path d="M33 11C33 11.8643 32.2641 12.5636 31.3582 12.5636H1.64175C1.20633 12.5636 0.788745 12.3988 0.480858 12.1056C0.17297 11.8124 0 11.4147 0 11C0 10.5853 0.17297 10.1876 0.480858 9.89439C0.788745 9.60116 1.20633 9.43643 1.64175 9.43643H31.3582C32.2658 9.43643 33 10.1373 33 11Z" fill="#054BDC"/>
<path d="M31.3582 3.12714C31.7937 3.12714 32.2113 2.96241 32.5191 2.66918C32.827 2.37596 33 1.97826 33 1.56357C33 1.14889 32.827 0.751186 32.5191 0.457959C32.2113 0.164733 31.7937 1.23586e-08 31.3582 0H11.5417C11.3262 -6.11934e-09 11.1127 0.040443 10.9135 0.11902C10.7143 0.197597 10.5333 0.312768 10.3809 0.457959C10.2284 0.60315 10.1075 0.775518 10.025 0.965219C9.94247 1.15492 9.9 1.35824 9.9 1.56357C9.9 1.7689 9.94247 1.97222 10.025 2.16192C10.1075 2.35163 10.2284 2.52399 10.3809 2.66918C10.5333 2.81437 10.7143 2.92955 10.9135 3.00812C11.1127 3.0867 11.3262 3.12714 11.5417 3.12714H31.3582Z" fill="#054BDC"/>
</svg>

<svg width="33" height="22" fill="none" xmlns="http://www.w3.org/2000/svg"><path d="M33 20.436c0 .865-.736 1.564-1.642 1.564H18.142c-.436 0-.853-.165-1.161-.458a1.527 1.527 0 0 1-.481-1.106c0-.414.173-.812.48-1.105a1.684 1.684 0 0 1 1.162-.458h13.216c.908 0 1.642.7 1.642 1.563zM33 11c0 .864-.736 1.564-1.642 1.564H1.642c-.436 0-.853-.165-1.161-.458A1.527 1.527 0 0 1 0 11c0-.415.173-.812.48-1.106a1.684 1.684 0 0 1 1.162-.458h29.716c.908 0 1.642.701 1.642 1.564zM31.358 3.127c.436 0 .853-.165 1.161-.458.308-.293.481-.69.481-1.105 0-.415-.173-.813-.48-1.106A1.684 1.684 0 0 0 31.357 0H11.542c-.216 0-.43.04-.628.119-.2.079-.38.194-.533.339a1.56 1.56 0 0 0-.356.507 1.499 1.499 0 0 0 0 1.197c.082.19.203.362.356.507.152.145.333.26.533.34.199.078.412.118.628.118h19.816z" fill="#054BDC"/></svg>
